teeny/solid/markdown.svg

<svg width="15" height="15" viewBox="0 0 15 15" fill="none" xmlns="http://www.w3.org/2000/svg">
<path fill-rule="evenodd" clip-rule="evenodd" d="M0 3.5C0 2.67157 0.671573 2 1.5 2H13.5C14.3284 2 15 2.67157 15 3.5V11.5C15 12.3284 14.3284 13 13.5 13H1.5C0.671574 13 0 12.3284 0 11.5V3.5ZM10 5V8.29289L8.85359 7.14648L8.14648 7.85359L10.1465 9.85359C10.3417 10.0489 10.6583 10.0489 10.8536 9.85359L12.8536 7.85359L12.1465 7.14648L11 8.29297V5H10ZM2.85355 5.14646C2.71055 5.00346 2.4955 4.96068 2.30866 5.03807C2.12182 5.11547 2 5.29778 2 5.50001V10H3V6.70712L4.5 8.20712L6 6.70712V10H7V5.50001C7 5.29778 6.87818 5.11547 6.69134 5.03807C6.5045 4.96068 6.28945 5.00346 6.14645 5.14646L4.5 6.79291L2.85355 5.14646Z" fill="black"/>
</svg>

<svg viewBox="0 0 15 15" xmlns="http://www.w3.org/2000/svg"><path fill-rule="evenodd" d="M0 3.5C0 2.67.67 2 1.5 2h12c.82 0 1.5.67 1.5 1.5v8c0 .82-.68 1.5-1.5 1.5h-12C.67 13 0 12.32 0 11.5v-8ZM10 5v3.29L8.85 7.14l-.71.7 2 2c.19.19.51.19.7 0l2-2 -.71-.71 -1.15 1.14v-3.3h-1Zm-7.15.14c-.15-.15-.36-.19-.55-.11 -.19.07-.31.25-.31.46v4.49h1v-3.3l1.5 1.5 1.5-1.5v3.29h1v-4.5c0-.21-.13-.39-.31-.47 -.19-.08-.41-.04-.55.1L4.48 6.74 2.83 5.09Z"/></svg>
